src/assets/svg/graf.svg

<svg viewBox="0 0 24 24" xmlns="http://www.w3.org/2000/svg"><path d="m21 5a2 2 0 1 0 -3.49 1.32l-2.91 8.68a1.88 1.88 0 0 0 -.42.14l-4.2-3a1.37 1.37 0 0 0 .02-.14 2 2 0 0 0 -4 0 2 2 0 0 0 .4 1.19l-1.64 3.81a2 2 0 1 0 2.24 2 2 2 0 0 0 -.4-1.19l1.64-3.81a2.16 2.16 0 0 0 .58-.16l4.2 3a1.37 1.37 0 0 0 -.02.16 2 2 0 1 0 3.49-1.32l2.91-8.68a2 2 0 0 0 1.6-2z"/></svg>

<svg id="Layer_1" data-name="Layer 1" xmlns="http://www.w3.org/2000/svg" viewBox="0 0 24 24"><path d="M21,5a2,2,0,1,0-3.49,1.32L14.6,15a1.88,1.88,0,0,0-.42.14l-4.2-3A1.37,1.37,0,0,0,10,12a2,2,0,0,0-4,0,2,2,0,0,0,.4,1.19L4.76,17A2,2,0,1,0,7,19a2,2,0,0,0-.4-1.19L8.24,14a2.16,2.16,0,0,0,.58-.16l4.2,3A1.37,1.37,0,0,0,13,17a2,2,0,1,0,3.49-1.32L19.4,7A2,2,0,0,0,21,5Z"/></svg>
